X:1
T:Polska efter Johan Lundin
S:efter Johan Lundin
B:SMUS - katalog M6 bild 18 nr 82
Z:Nils L
R:Slängpolska
O:Uppland
N:Jämför +, +, + och Låt 38 ur [[Notböcker/Christian Frederik & Povel Danckel Bast notbok]] från [[Platser/Danmark]].
M:3/4
L:1/8
K:D
DF Ad fa | af/a/ ge/g/ fa | DF Ad fa | a/b/a/g/ f2 e2 ::
fe/f/ gf ed | c/d/c/B/ A/c/A/G/ FA | fe/f/ gf ed | c/d/c/B/ A/B/A/G/ FA |
Fa Eg Df | f/e/d/c/ d2 D2 :|

